!!!!SEGMENT: Lhe2013-Qui_confidunt_in_Domino.krn
!!!id: Lhe2013
!!!AGN: Motet
!!!voices: 4
!!!COM: Jean Lhéritier
!!!OTL: Qui confidunt in Domino
**kern	**kern	**kern	**kern
*part4	*part3	*part2	*part1
*staff4	*staff3	*staff2	*staff1
*I"Bassus	*I"Tenor	*I"Altus	*I"Superius
*I'B	*I'T	*I'A	*I'S
*clefF4	*clefGv2	*clefG2	*clefG2
*k[]	*k[]	*k[]	*k[]
*C:	*C:	*C:	*C:
*M2/1	*M2/1	*M2/1	*M2/1
*met(C|)	*met(C|)	*met(C|)	*met(C|)
!!section: Prima pars: Qui confidunt in Domino
!!!OMD: Prima pars: Qui confidunt in Domino
=1	=1	=1	=1
0r	0r	0e	0r
=2	=2	=2	=2
0r	0r	1e	0r
.	.	1d	.
=3	=3	=3	=3
0r	0r	1.f	0a
.	.	2d	.
=4	=4	=4	=4
0r	0r	2f	1a
.	.	2f	.
.	.	[1e	1g
=5	=5	=5	=5
0A	0r	2e]	1.cc
.	.	4d	.
.	.	4c	.
.	.	2e	.
.	.	[2f	2a
=6	=6	=6	=6
1A	0r	4f]	2cc
.	.	4e	.
.	.	2c	2cc
1G	.	2d	1b
.	.	2e	.
=7	=7	=7	=7
1.c	0e	1A	2r
.	.	.	2ee
.	.	2r	2cc
2A	.	2a	[2ee
=8	=8	=8	=8
2c	1e	2g	2ee]
2c	.	1a	4dd
.	.	.	4cc
1B	1d	.	1dd
.	.	2g#i	.
=9	=9	=9	=9
2r	1.f	1a	1cc
2A	.	.	.
2B	.	4d	2r
.	.	4e	.
2B	2d	4f	2dd
.	.	4g	.
=10	=10	=10	=10
0A	2f	1a	2cc
.	2f	.	1dd
.	1e	2r	.
.	.	[2a	2cc#i
=11	=11	=11	=11
1D	2r	2a]	1dd
.	1d	2f	.
2E	.	1g	1r
2E	2c	.	.
=12	=12	=12	=12
2.G	1d	1b-i	2r
.	.	.	1dd
4F	.	.	.
2D	[1f	1a	.
[2A	.	.	2cc
=13	=13	=13	=13
2A]	2f]	2r	1dd
2G	4e	2.b-i	.
.	4d	.	.
1A	1c	.	2ff
.	.	4a	.
.	.	2a	2ee
=14	=14	=14	=14
1B-X	2r	2.f	2dd
.	1d	.	1ff
.	.	4g	.
1A	.	4a	.
.	.	4b-i	.
.	2c	4cc	2ee
.	.	4a	.
=15	=15	=15	=15
1r	1d	2b-i	2dd
.	.	1a	2cc
2r	2e	.	1b-i
[2G	[2d	2g	.
=16	=16	=16	=16
2G]	4d]	1a	2r
.	4e	.	.
2F	4f	.	1cc
.	4d	.	.
1G	2e	2g	.
.	[2d	2f	2b
=17	=17	=17	=17
1A	2d]	1e	2a
.	2c#i	.	2a
1B-i	1d	2d	1f
.	.	[2b-i	.
=18	=18	=18	=18
1F	1c	2b-]	1ff
.	.	2a	.
1G	1r	2g	2ee
.	.	2f	[2dd
=19	=19	=19	=19
1A	2r	1e	2dd]
.	1a	.	2cc
1B-i	.	1d	4b
.	.	.	4a
.	2g	.	[2dd
=20	=20	=20	=20
1A	2f	2r	2dd]
.	2e	1a	2cc#i
2r	[1d	.	[1dd
[2B	.	2g	.
=21	=21	=21	=21
2B]	2d]	1f	1dd]
2A	2c	.	.
2G	2B	2e	1r
2F	[2A	[2d	.
=22	=22	=22	=22
1E	2A]	2d]	2r
.	2G	2c#i	1gg
1D	2A	1d	.
.	2a	.	2ff
=23	=23	=23	=23
1G	2g	2r	2ee
.	2f	2d	1dd
1A	1e	1a	.
.	.	.	2cc#i
=24	=24	=24	=24
0D	0d	2f	1dd
.	.	2d	.
.	.	2a	2r
.	.	2a	2a
=25	=25	=25	=25
0r	0r	2g	2dd
.	.	2f	2dd
.	.	1e	2cc
.	.	.	2b
=26	=26	=26	=26
0r	0r	1.f	1a
.	.	.	1dd
.	.	4e	.
.	.	4d	.
=27	=27	=27	=27
2r	1r	2e	2cc
2G	.	1g	2b
2d	2r	.	1a
2d	2d	2f	.
=28	=28	=28	=28
2c	2g	2e	2r
2B	2g	2d	2d
2.A	2f	1c	2a
.	[2e	.	2a
4B	.	.	.
=29	=29	=29	=29
2c	4e]	2r	2g
.	4d	.	.
2d	1d	2d	2f
1A	.	2a	2e
.	[2c	2a	[2ee
=30	=30	=30	=30
1r	4c]	2g	4ee]
.	4B	.	4dd
.	2d	2f	1dd
2r	2A	1e	.
2A	[2a	.	2cc#i
=31	=31	=31	=31
2d	2a]	2r	2dd
2d	2f	2d	2ff
2c	2g	2e	2ee
2B	2d	2g	[2dd
=32	=32	=32	=32
2.A	2a	2f	4dd]
.	.	.	4cc
.	2a	2.e	2.cc
4B	.	.	.
2c	2g	.	.
.	.	4d	4b
2d	2f	[2d	4a
.	.	.	4g
=33	=33	=33	=33
1A	2e	2d]	1.a
.	2.f	2c	.
2F	.	1d	.
.	4e	.	.
2G	[2d	.	4g
.	.	.	4f
=34	=34	=34	=34
1A	2d]	2r	1e
.	2c#i	2a	.
1D	1d	2a	2d
.	.	2a	2dd
=35	=35	=35	=35
0r	0r	1b-i	2dd
.	.	.	2dd
.	.	2.a	1ee
.	.	4g	.
=36	=36	=36	=36
0r	1r	2f	1dd
.	.	2g	.
.	2r	2e	2cc
.	2d	[2a	2dd
=37	=37	=37	=37
1r	2e	2a]	1b
.	2e	2g#i	.
2r	1f	1a	[1a
[2d	.	.	.
=38	=38	=38	=38
2d]	1e	1A	1a]
2c	.	.	.
2B	2d	1r	1r
2A	[2e	.	.
=39	=39	=39	=39
2G	4e]	2r	0r
.	4d	.	.
2F	1d	2d	.
2G	.	2e	.
2A	2c#i	2e	.
=40	=40	=40	=40
2D	0d	2.f	2r
2F	.	.	2a
.	.	4e	.
2G	.	2d	2b
2G	.	2g	2b
=41	=41	=41	=41
2.A	1r	2f	2.cc
.	.	2.e	.
4G	.	.	4b
2F	2r	.	2a
.	.	4d	.
2G	2d	[2d	2b-i
=42	=42	=42	=42
1E	2e	2d]	1g
.	2e	2c	.
1D	1f	2A	2f
.	.	[2a	2a
=43	=43	=43	=43
1r	2.e	2a]	2b
.	.	2g	2cc
.	4d	.	.
2r	2c	2e	2cc
2D	2d	2f	[2a
=44	=44	=44	=44
2E	1B	1e	2a]
2E	.	.	2g
2.F	1A	2c	2a
.	.	2f	[2cc
4E	.	.	.
=45	=45	=45	=45
2C	2G	2e	4cc]
.	.	.	4b
2F	2A	2d	1a
1E	1B	1e	.
.	.	.	2g#i
=46	=46	=46	=46
0A	1r	2c	[0a
.	.	4A	.
.	.	4B	.
.	1e	4c	.
.	.	4d	.
.	.	[2e	.
=47	=47	=47	=47
1r	1f	4e]	0a]
.	.	4d	.
.	.	1d	.
1A	1e	.	.
.	.	2c#i	.
=48	=48	=48	=48
1B-i	1d	1d	0r
2A	2c	2r	.
2F	[2d	2a	.
=49	=49	=49	=49
2G	2d]	1b-i	0r
2G	2e	.	.
2D	1f	1a	.
[2d	.	.	.
=50	=50	=50	=50
2d]	1e	1g	1ee
2c#i	.	.	.
1d	1r	2f	1ff
.	.	[2a	.
=51	=51	=51	=51
2.c	0r	4a]	1ee
.	.	4g	.
.	.	1cc	.
4B	.	.	.
1G	.	.	1dd
.	.	2b	.
=52	=52	=52	=52
0r	1r	2a	2cc
.	.	2.cc	2a
.	1A	.	1cc
.	.	4b	.
.	.	[2a	.
=53	=53	=53	=53
1E	1.e	2a]	1b
.	.	2g#i	.
[1A	.	2a	1a
.	2e	2A	.
=54	=54	=54	=54
2A]	1e	1.c	2r
2A	.	.	2e
[1A	2r	.	[1a
.	[2e	2c	.
=55	=55	=55	=55
1A]	2e]	2c	2a]
.	2c	2e	2a
2r	2d	2f	[1a
[2A	2e	2e	.
=56	=56	=56	=56
2A]	1A	2.c	1a]
2F	.	.	.
.	.	4A	.
2G	1e	2B	1r
2A	.	2c	.
=57	=57	=57	=57
1D	1f	2A	0r
.	.	1d	.
1A	2e	.	.
.	[2f	2c	.
=58	=58	=58	=58
1B-X	2f]	1d	2r
.	4e	.	1dd
.	4d	.	.
2.A	2f	1r	.
.	[2e	.	2cc
4G	.	.	.
=59	=59	=59	=59
2F	4e]	1r	1dd
.	4d	.	.
2G	1d	.	.
1E	.	2r	1ee
.	2c#i	[2g	.
=60	=60	=60	=60
1D	1d	2g]	1a
.	.	2f	.
1r	1r	2g	1ee
.	.	2a	.
=61	=61	=61	=61
1r	0r	1d	1ff
2r	.	1a	2ee
[2d	.	.	[2ff
=62	=62	=62	=62
2d]	0r	2.b-i	2ff]
2B-X	.	.	4ee
.	.	4a	4dd
2c	.	2g	2ee
2d	.	2f	[2dd
=63	=63	=63	=63
1A	2r	1e	2dd]
.	1a	.	2cc
1d	.	2r	2dd
.	2f	2d	2ff
=64	=64	=64	=64
2c	2g	2e	2ee
2A	2a	1f	2cc
1B	1d	.	1dd
.	.	2g	.
=65	=65	=65	=65
[0A	2r	1a	0cc
.	2e	.	.
.	1f	2r	.
.	.	2a	.
=66	=66	=66	=66
1A]	2e	1cc	0r
.	2c	.	.
2r	1g	2b	.
2G	.	2g	.
=67	=67	=67	=67
1d	2f	2a	1r
.	2d	2.b-i	.
2c	2e	.	2r
.	.	4a	.
2A	2f	2a	2a
=68	=68	=68	=68
1B	1d	2f	1dd
.	.	2g	.
1A	2r	2.a	2cc
.	2e	.	2a
.	.	8gL	.
.	.	8fJ	.
=69	=69	=69	=69
2r	1g	2e	1b
2G	.	2.d	.
1d	2f	.	2.a
.	.	4e	.
.	2d	2f	.
.	.	.	4b
=70	=70	=70	=70
2c	2e	2g	4cc
.	.	.	4dd
2A	2c	1a	2.ee
1B	1d	.	.
.	.	.	4dd
.	.	2g	[2dd
=71	=71	=71	=71
2.A	2e	1a	2dd]
.	2.f	.	2cc
4G	.	.	.
2F	.	2r	1dd
.	4e	.	.
2G	[2d	2d	.
=72	=72	=72	=72
1E	2d]	1g	2r
.	2c#i	.	2ee
2D	1d	2f	2ff
[2d	.	[2a	4ee
.	.	.	4dd
=73	=73	=73	=73
2d]	2r	4a]	2ff
.	.	4b	.
2c	2e	4cc	1ee
.	.	4a	.
2d	2f	2b	.
2B	2d	2g	[2dd
=74	=74	=74	=74
1A	1e	1a	2dd]
.	.	.	2cc#i
[1D	2r	[1a	1dd
.	[2f	.	.
=75	=75	=75	=75
1D]	2f]	0a]	1.ff
.	2e	.	.
1r	2d	.	.
.	2c	.	2ee
=76	=76	=76	=76
0r	2f	2r	2dd
.	2a	1cc	2cc
.	1g	.	1dd
.	.	2b	.
=77	=77	=77	=77
0r	1c	2a	1ee
.	.	2g	.
.	1f	2a	2cc
.	.	4d	[2dd
.	.	4e	.
=78	=78	=78	=78
0r	1d	4f	2dd]
.	.	4g	.
.	.	1a	2cc
.	2.e	.	1b
.	.	[2g	.
.	4d	.	.
=79	=79	=79	=79
2r	2c	2g]	0a
1d	2d	2f	.
.	1A	2e	.
2c	.	2a	.
=80	=80	=80	=80
2B	2r	2g	1r
2A	1a	2f	.
1c	.	1e	2r
.	2g	.	[2ee
=81	=81	=81	=81
1d	1.f	1.a	2ee]
.	.	.	2dd
[1A	.	.	2cc
.	2e	4g	2a
.	.	4f	.
=82	=82	=82	=82
1A]	2c	2e	1cc
.	2c	2f	.
1G	2d	1g	1b
.	[2g	.	.
=83	=83	=83	=83
1.d	2g]	1.a	2a
.	4f	.	2.dd
.	4e	.	.
.	2f	.	.
.	.	.	4cc
2G	[2d	[2g	4b
.	.	.	4a
=84	=84	=84	=84
2G	4d]	4g]	2b
.	4c	4f	.
2A	4B	4e	1a
.	4A	4d	.
1E	1B	[1e	.
.	.	.	2g#i
=85	=85	=85	=85
1A	1A	2e]	[0a
.	.	2c	.
2r	1e	1c	.
2A	.	.	.
=86	=86	=86	=86
1.d	2f	1r	0a]
.	2d	.	.
.	1e	1A	.
2c	.	.	.
=87	=87	=87	=87
1d	1f	1.a	2r
.	.	.	2a
1B	1d	.	[1dd
.	.	2g	.
=88	=88	=88	=88
1A	2r	1a	2dd]
.	2e	.	2cc
1D	[1a	1f	1dd
=89	=89	=89	=89
1r	2a]	1e	1b
.	2g	.	.
1A	1a	2r	2a
.	.	[2cc	2ee
=90	=90	=90	=90
1.d	1f	2cc]	2ff
.	.	2a	2dd
.	2e	2b	1ee
2c	[2g	2cc	.
=91	=91	=91	=91
1d	2g]	2b	2dd
.	2f	1a	1ff
1B	1d	.	.
.	.	2g#i	4ee
.	.	.	4dd
=92	=92	=92	=92
[0A	1.f	0a	1cc
.	.	.	2r
.	4e	.	[2ee
.	4d	.	.
=93	=93	=93	=93
1A]	2e	2r	2ee]
.	2f	1a	2cc
1r	1d	.	[1ff
.	.	2f	.
=94	=94	=94	=94
0r	0r	1.b-i	2ff]
.	.	.	2ee
.	.	.	2dd
.	.	2a	2cc
=95	=95	=95	=95
0r	2r	2g	1b
.	1d	2f	.
.	.	1e	[1a
.	2c	.	.
=96	=96	=96	=96
2r	1.f	2.d	0a]
1d	.	.	.
.	.	4c	.
.	.	1A	.
2c	2e	.	.
=97	=97	=97	=97
2B	2d	2r	1r
2A	2c	1e	.
2G	2B	.	2r
2F	[2A	2d	[2dd
=98	=98	=98	=98
1E	2A]	1g	2dd]
.	2G	.	2cc
1D	2A	1f	[1ff
.	[2d	.	.
=99	=99	=99	=99
0r	2d]	1.a	2ff]
.	2c	.	2ee
.	2.f	.	2dd
.	.	2g	2cc
.	4e	.	.
=100	=100	=100	=100
1r	2d	2f	2b
.	2c	2e	1a
2r	1B	1d	.
[2d	.	.	2g#i
=101	=101	=101	=101
2d]	1A	2e	2a
2c	.	2.a	2ee
2d	1a	.	2ff
.	.	4g	.
2A	.	[2cc	[2ee
=102	=102	=102	=102
2c	2g	4cc]	2ee]
.	.	4b	.
2d	2f	4a	2dd
.	.	4g	.
1A	[1e	4a	2cc
.	.	4e	.
.	.	[2a	4b
.	.	.	4a
=103	=103	=103	=103
0r	1e]	2a]	2b
.	.	2g	2.ee
.	[1A	2f	.
.	.	.	4dd
.	.	4e	[2dd
.	.	4d	.
=104	=104	=104	=104
2r	1A]	2e	2dd]
2A	.	2a	2cc#i
2B	2r	2g	1dd
[2d	2d	2f	.
=105	=105	=105	=105
2d]	2e	1e	0r
2c	1g	.	.
2B	.	1r	.
2A	2f	.	.
=106	=106	=106	=106
2.c	2e	0r	0r
.	2d	.	.
4B	.	.	.
4A	2e	.	.
4G	.	.	.
4F	[2f	.	.
4E	.	.	.
=107	=107	=107	=107
2D	4f]	2r	0r
.	4e	.	.
2F	1d	2d	.
1E	.	2e	.
.	2c#i	[2g	.
=108	=108	=108	=108
1D	1d	2g]	2r
.	.	2f	2a
1r	1r	2e	2b
.	.	2d	[2dd
=109	=109	=109	=109
0r	0r	2.f	2dd]
.	.	.	2cc
.	.	4e	.
.	.	2d	4b
.	.	.	4a
.	.	2e	[2cc
=110	=110	=110	=110
2r	0r	2c	4cc]
.	.	.	4b
2D	.	2d	1a
2E	.	1B	.
[2G	.	.	2g#i
=111	=111	=111	=111
2G]	2r	1A	1a
2F	2d	.	.
1E	2e	2r	1r
.	[2g	2G	.
=112	=112	=112	=112
1D	2g]	2A	1r
.	2f	1d	.
1A	1e	.	2r
.	.	2c	2a
=113	=113	=113	=113
1r	1d	1B	2b
.	.	.	1dd
2r	2e	1A	.
2A	[2a	.	2cc
=114	=114	=114	=114
2B	4a]	1d	1b
.	4g	.	.
1d	4f	.	.
.	4e	.	.
.	2f	2r	1a
2c	[2e	2A	.
=115	=115	=115	=115
1B	2e]	1d	1g
.	1d	.	.
1A	.	1e	[1a
.	2c#i	.	.
=116	=116	=116	=116
1D	0d	2r	1a]
.	.	1f	.
2r	.	.	2r
[2D	.	2f	[2a
=117	=117	=117	=117
2D]	2r	1f	2a]
2D	1d	.	2a
2G	.	1g	2b
2B	2d	.	2b
=118	=118	=118	=118
1A	2e	1a	1cc
.	2e	.	.
1D	1f	[1a	2a
.	.	.	[2dd
=119	=119	=119	=119
0r	2d	2a]	2dd]
.	1a	1cc	2ee
.	.	.	2ff
.	2g	[2b	[2ee
=120	=120	=120	=120
1r	1f	4b]	4ee]
.	.	4a	4dd
.	.	1a	2dd
2r	1e	.	2cc
[2G	.	2g	2b
=121	=121	=121	=121
2G]	2r	1a	1dd
2F	1d	.	.
2G	.	2r	1r
2A	2c	[2a	.
=122	=122	=122	=122
1B-i	1d	2a]	2r
.	.	2g	1dd
1A	1e	1a	.
.	.	.	2cc
=123	=123	=123	=123
2r	1f	1a	1dd
1d	.	.	.
.	1e	1g	1ee
2c	.	.	.
=124	=124	=124	=124
2d	2d	2f	2ff
2A	2c	1a	2.ee
1B	1d	.	.
.	.	.	4dd
.	.	2g	[2dd
=125	=125	=125	=125
1A	1e	1a	2dd]
.	.	.	2cc#i
[1Dl	[1dl	[1al	[1ddl
=126	=126	=126	=126
00D]	00d]	00a]	00dd]
=127||	=127||	=127||	=127||
*M2/1	*M2/1	*M2/1	*M2/1
*met(C|)	*met(C|)	*met(C|)	*met(C|)
!!section: Secunda pars: Benefac, Domine
!!!OMD: Secunda pars: Benefac, Domine
0r	0r	0r	0dd
=128	=128	=128	=128
0r	0r	1r	1cc
.	.	[1g	1b
=129	=129	=129	=129
0r	0r	1g]	1.dd
.	.	1f	.
.	.	.	[2cc
=130	=130	=130	=130
0r	0r	1e	2cc]
.	.	.	4b
.	.	.	4a
.	.	[1g	2b
.	.	.	2b
=131	=131	=131	=131
0d	0r	2g]	0a
.	.	1f	.
.	.	4e	.
.	.	4d	.
=132	=132	=132	=132
1c	0g	2e	0r
.	.	2e	.
1B	.	1d	.
=133	=133	=133	=133
1.d	1f	0r	0r
.	1e	.	.
[2c	.	.	.
=134	=134	=134	=134
2c]	1.g	0r	1r
4B-i	.	.	.
4A	.	.	.
2B-X	.	.	[1dd
2B-i	[2f	.	.
=135	=135	=135	=135
0A	2f]	0a	1dd]
.	4e	.	.
.	4d	.	.
.	1e	.	1cc
=136	=136	=136	=136
0r	1e	1g	1b
.	1d	1f	[1dd
=137	=137	=137	=137
0r	1f	1a	2dd]
.	.	.	1cc
.	1e	[1g	.
.	.	.	4b
.	.	.	4a
=138	=138	=138	=138
2r	1e	2g]	2b
2G	.	4f	2b
.	.	4e	.
1d	2r	2f	2.a
.	2d	2f	.
.	.	.	4b
=139	=139	=139	=139
2c	1a	2e	4cc
.	.	.	4dd
2A	.	1a	2.ee
1B	2f	.	.
.	.	.	4dd
.	2d	2g	[2dd
=140	=140	=140	=140
1A	1e	1a	2dd]
.	.	.	2cc#i
1D	2d	[1f	[1dd
.	[2a	.	.
=141	=141	=141	=141
1r	2a]	1f]	0dd_
.	2a	.	.
[1d	2f	1r	.
.	2d	.	.
=142	=142	=142	=142
2d]	1f	1.a	1dd]
2d	.	.	.
2c	1e	.	2r
2A	.	2a	[2ee
=143	=143	=143	=143
1c	1e	2g	2ee]
.	.	2e	2ee
1B	1r	1g	2dd
.	.	.	2b
=144	=144	=144	=144
1A	2r	2f	1cc
.	1a	2.e	.
1r	.	.	1b
.	.	4d	.
.	2g	2e	.
=145	=145	=145	=145
1.A	2f	1c	2a
.	1e	.	1cc
.	.	2r	.
2A	4d	[2e	2cc
.	4c	.	.
=146	=146	=146	=146
2G	2g	2e]	2b
2E	2c	2e	4g
.	.	.	4a
1G	2B	2d	4b
.	.	.	4cc
.	2G	2B	[2b
=147	=147	=147	=147
1F	1A	1d	4b]
.	.	.	4a
.	.	.	1a
[1E	1e	1c	.
.	.	.	4g
.	.	.	4f
=148	=148	=148	=148
1E]	2r	0r	1g
.	1e	.	.
[1A	.	.	1a
.	2d	.	.
=149	=149	=149	=149
2A]	2c	0r	0r
2G	2B	.	.
2F	2.c	.	.
2E	.	.	.
.	4B	.	.
=150	=150	=150	=150
1F	2A	2r	1r
.	2.d	1a	.
1E	.	.	2r
.	4c#i	.	.
.	4c#i	2g	[2ee
.	4B	.	.
=151	=151	=151	=151
1r	2d	2f	2ee]
.	2B	2d	2dd
2r	1A	1f	2cc
2D	.	.	2a
=152	=152	=152	=152
1.A	0r	2e	1cc
.	.	4c	.
.	.	4d	.
.	.	4e	1b
.	.	4f	.
2G	.	2g	.
=153	=153	=153	=153
2c	1A	2e	0r
2A	.	1a	.
1B	[1d	.	.
.	.	2g	.
=154	=154	=154	=154
1A	2d]	2a	0r
.	2c	2e	.
1D	2f	[1a	.
.	2d	.	.
=155	=155	=155	=155
0r	1e	2a]	1b
.	.	2g	.
.	1A	2cc	[1ee
.	.	2a	.
=156	=156	=156	=156
1r	2r	1b	2ee]
.	2G	.	2dd
2r	[1d	[1a	2ff
2D	.	.	2dd
=157	=157	=157	=157
1.A	2d]	1a]	1ee
.	2c	.	.
.	2f	1r	2a
2G	2d	.	[2b
=158	=158	=158	=158
2c	1e	1A	4b]
.	.	.	4a
2A	.	.	1a
1B	2d	[1d	.
.	2g	.	2g#i
=159	=159	=159	=159
1A	2f	2d]	[0a
.	2.e	2c	.
2r	.	2f	.
.	4d	.	.
2D	[2d	2d	.
=160	=160	=160	=160
2.A	2d]	1e	0a_
.	2c	.	.
4G	.	.	.
2F	2d	2A	.
2D	2f	[2d	.
=161	=161	=161	=161
1A	1e	2d]	0a]
.	.	2c#i	.
2d	2r	2d	.
2A	2e	2a	.
=162	=162	=162	=162
2d	2f	2a	0r
2d	2f	2a	.
2c	2.e	2.a	.
2B	.	.	.
.	4d	4g	.
=163	=163	=163	=163
2A	2e	2a	2r
2F	2a	2cc	2ff
2F	2a	2cc	2ff
2F	2a	2cc	2ff
=164	=164	=164	=164
2c	2g	2cc	2.ee
2d	2f	2a	.
.	.	.	4dd
[1A	1e	[1a	[1cc
=165	=165	=165	=165
0A_	2r	1a]	1cc]
.	2c	.	.
.	2f	2r	1r
.	2f	2a	.
=166	=166	=166	=166
1A]	2e	2cc	0r
.	2e	2cc	.
1r	2.d	2b	.
.	.	2b	.
.	4e	.	.
=167	=167	=167	=167
1r	2f	2a	0r
.	2.e	2.cc	.
2r	.	.	.
.	4d	4b	.
2A	4c	4a	.
.	4B	4g	.
=168	=168	=168	=168
2c	2A	4f	0r
.	.	4e	.
2c	2.e	1a	.
2B	.	.	.
.	4d	.	.
2B	[2d	2g#i	.
=169	=169	=169	=169
1A	2d]	1a	2r
.	2c#i	.	2ee
4D	1d	2r	2ff
4E	.	.	.
4F	.	2a	2ff
4G	.	.	.
=170	=170	=170	=170
4A	2r	2cc	2ee
4B	.	.	.
4c	2e	2cc	2ee
4A	.	.	.
2B	2g	2b	2.dd
2G	2g	2b	.
.	.	.	4ee
=171	=171	=171	=171
2d	2f	2.a	2ff
2c	2g	.	2.ee
.	.	4b	.
1A	2a	2cc	.
.	.	.	4dd
.	2e	[2a	4cc
.	.	.	4b
=172	=172	=172	=172
2d	2f	4a]	2a
.	.	4g	.
2c	[2g	2e	2.ee
1B	4g]	2f	.
.	4f	.	4dd
.	4e	2g	[2dd
.	4d	.	.
=173	=173	=173	=173
1A	1e	1a	2dd]
.	.	.	2cc#i
[1D	[1d	2r	1dd
.	.	2b-i	.
=174	=174	=174	=174
1D]	1d]	2a	2r
.	.	2f	2ff
1r	1r	2g	2ee
.	.	2a	2cc
=175	=175	=175	=175
0r	1r	2d	2dd
.	.	2.a	2ee
.	2r	.	1a
.	.	4b	.
.	2f	[2cc	.
=176	=176	=176	=176
0r	2e	4cc]	1cc
.	.	4b	.
.	2c	1a	.
.	2d	.	1b
.	2e	2g	.
=177	=177	=177	=177
1r	4A	2f	1a
.	4B	.	.
.	4c	4e	.
.	4d	4d	.
2r	2e	2c	1r
2B-X	[2f	2d	.
=178	=178	=178	=178
2A	4f]	1f	2r
.	4e	.	.
2F	1d	.	2a
2G	.	1e	2b
2A	2c	.	2cc
=179	=179	=179	=179
2D	1f	2r	2a
2F	.	2A	1dd
2G	1e	2B	.
2A	.	2c	2cc
=180	=180	=180	=180
4D	2r	2A	1dd
4E	.	.	.
4F	2A	1d	.
4G	.	.	.
1E	2B	.	1ee
.	2c	2c	.
=181	=181	=181	=181
1D	2A	2d	1ff
.	1d	2.a	.
2r	.	.	1ee
.	.	4g	.
2A	2c	4e	.
.	.	4f	.
=182	=182	=182	=182
2B	2d	2g	1r
2c	1g	2e	.
2A	.	1a	2r
[2d	2f	.	2a
=183	=183	=183	=183
2d]	1e	1.g	2b
2c	.	.	2cc
2d	2r	.	2a
2D	2d	2f	[2dd
=184	=184	=184	=184
2A	2e	2e	2dd]
2A	2f	2A	2cc
2G	2d	2B	2dd
2E	[2g	2c	2g
=185	=185	=185	=185
2D	2g]	2A	1a
4r	2f	1d	.
4D	.	.	.
2E	2e	.	2g
2F	2A	2c	2cc
=186	=186	=186	=186
1D	1d	1f	2b
.	.	.	1a
1E	1B	1e	.
.	.	.	2g#i
=187	=187	=187	=187
0A	1A	1r	[0a
.	2r	1e	.
.	2A	.	.
=188	=188	=188	=188
0r	2A	2e	0a]
.	2A	2e	.
.	1d	1f	.
=189	=189	=189	=189
0r	2c	2e	2r
.	1d	2.f	2a
.	.	.	2a
.	.	4e	.
.	2A	[2a	2a
=190	=190	=190	=190
1r	1B	2a]	1dd
.	.	2g	.
2r	[1A	4a	2cc
.	.	4g	.
2D	.	4f	[2dd
.	.	4e	.
=191	=191	=191	=191
2D	1A]	1f	2dd]
2D	.	.	2a
1G	1r	2e	1b
.	.	[2d	.
=192	=192	=192	=192
2F	2r	4d]	2a
.	.	4c	.
1G	2d	4B	2.b
.	.	4A	.
.	2d	2B	.
.	.	.	4a
2D	2d	[2A	[2dd
=193	=193	=193	=193
1E	1g	2A]	2dd]
.	.	2G	2cc
2D	2f	2A	2dd
2r	[2g	2c	[2ee
=194	=194	=194	=194
0r	2g]	1B	4ee]
.	.	.	4dd
.	2d	.	1dd
.	1e	1A	.
.	.	.	2cc#i
=195	=195	=195	=195
2r	2d	1.a	2dd
1A	1e	.	1cc
2A	2e	2a	2cc
=196	=196	=196	=196
1A	1e	1a	1.cc
1F	1f	1a	.
.	.	.	2a
=197	=197	=197	=197
1G	2e	1g	1b
.	1d	.	.
1A	.	1e	1a
.	2c#i	.	.
=198	=198	=198	=198
2D	2d	2f	2a
1A	1e	1a	1cc
2A	2e	2a	2cc
=199	=199	=199	=199
1A	1e	1a	1.cc
1F	2.f	1a	.
.	.	.	2a
.	4e	.	.
=200	=200	=200	=200
2G	2d	2g	2b
2A	2c	2f	1a
1E	1B	1e	.
.	.	.	2g#i
=201	=201	=201	=201
*M3/1	*M3/1	*M3/1	*M3/1
*met(O|/3)	*met(O|/3)	*met(O|/3)	*met(O|/3)
[0.A	0.A	0.e	0a
.	.	.	1r
=202	=202	=202	=202
0.A]	0.r	1r	0ee
.	.	0a	.
.	.	.	1ee
=203	=203	=203	=203
0.r	0.r	1a	1ff
.	.	1b	1dd
.	.	1g	1ee
=204	=204	=204	=204
0.r	0.r	1a	1ff
.	.	1b	1dd
.	.	1g	[1ee
=205	=205	=205	=205
0.r	0.r	1.a	2ee]
.	.	.	2dd
.	.	.	2cc
.	.	2g	2b
.	.	2f	1a
.	.	2e	.
=206	=206	=206	=206
0.r	1r	0a	1cc
.	1r	.	0b
.	[1e	1g#i	.
=207	=207	=207	=207
0A	1e]	0.a	0.a
.	1e	.	.
1A	1f	.	.
=208	=208	=208	=208
1B	1d	0.r	0.r
1G	1e	.	.
1A	1f	.	.
=209	=209	=209	=209
1B	1d	0.r	0.r
1G	1.e	.	.
[1A	.	.	.
.	2d	.	.
=210	=210	=210	=210
2A]	2c	0.r	0.r
2G	2B	.	.
2F	0A	.	.
2E	.	.	.
1D	.	.	.
=211	=211	=211	=211
1F	0d	0.r	1r
0E	.	.	0ee
.	1c#i	.	.
=212	=212	=212	=212
1D	1d	0a	0ff
0d	1r	.	.
.	1f	1b	1dd
=213	=213	=213	=213
1c	1g	1.cc	1ee
1F	1a	.	1ff
.	.	2a	.
1d	1f	1b	1dd
=214	=214	=214	=214
1c	1g	1.cc	1ee
1F	1a	.	1.ff
.	.	2a	.
1d	1f	1b	.
.	.	.	2dd
=215	=215	=215	=215
1.c	1g	1cc	1.ee
.	1e	1g	.
2B	.	.	2dd
2A	[1a	[1cc	2cc
2G	.	.	2b
=216	=216	=216	=216
2F	2a]	2cc]	1a
2D	2g	2b	.
1.d	2f	2a	1.ff
.	2e	2g	.
.	[1d	1f	.
2c	.	.	2ee
=217	=217	=217	=217
1B	1d]	1g	0dd
0A	0e	0a	.
.	.	.	1cc#i
=218	=218	=218	=218
*M2/1	*M2/1	*M2/1	*M2/1
*met(C|)	*met(C|)	*met(C|)	*met(C|)
0D	0d	2r	1dd
.	.	1a	.
.	.	.	2r
.	.	2a	[2dd
=219	=219	=219	=219
0r	0r	2g	2dd]
.	.	2g	2dd
.	.	2a	2cc
.	.	[2cc	2cc
=220	=220	=220	=220
0r	2r	2cc]	1dd
.	1d	2b	.
.	.	2a	[1ff
.	2d	2f	.
=221	=221	=221	=221
0r	2c	1g	2ff]
.	2c	.	2ee
.	2d	1f	2dd
.	[2f	.	4cc
.	.	.	4b
=222	=222	=222	=222
1r	2f]	0r	2a
.	2e	.	2cc
2r	4d	.	2b
.	4c	.	.
[2d	4B	.	[2a
.	4A	.	.
=223	=223	=223	=223
2d]	2B	1r	2a]
2d	2B	.	2g#i
2c	1A	1e	[1a
2c	.	.	.
=224	=224	=224	=224
2.d	1a	2.f	1a]
4c	.	4e	.
2B	2.g	2d	1r
2A	.	2c	.
.	4f	.	.
=225	=225	=225	=225
4G	4e	2B	1r
4F	4d	.	.
4E	1d	1A	.
4D	.	.	.
1E	.	.	1ee
.	2c#i	2G	.
=226	=226	=226	=226
1D	1d	2A	2.ff
.	.	2a	.
.	.	.	4ee
1r	1r	2b	4dd
.	.	.	4cc
.	.	2a	4b
.	.	.	4a
=227	=227	=227	=227
1r	1e	2a	2b
.	.	2g#i	2b
1A	2.f	1a	1a
.	4e	.	.
=228	=228	=228	=228
2.B	2d	0r	0r
.	2c	.	.
4A	.	.	.
4G	4B	.	.
4F	4A	.	.
4E	[2d	.	.
4D	.	.	.
=229	=229	=229	=229
2E	2d]	1r	1ee
2E	2c#i	.	.
1D	1d	1a	2.ff
.	.	.	4ee
=230	=230	=230	=230
0r	0r	2.b	2dd
.	.	.	2cc
.	.	4a	.
.	.	4g	4b
.	.	4f	4a
.	.	4e	[2dd
.	.	4d	.
=231	=231	=231	=231
1A	1r	2e	2dd]
.	.	1a	2cc#i
1B-X	1d	.	1dd
.	.	2g	.
=232	=232	=232	=232
1A	1e	1a	2r
.	.	.	2cc
1D	2.d	1f	2b
.	.	.	2a
.	4c	.	.
=233	=233	=233	=233
1E	1B	1e	2a
.	.	.	2g#i
1A	[1A	2r	1a
.	.	2e	.
=234	=234	=234	=234
1D	1A]	1f	2r
.	.	.	2a
1r	1r	2e	1cc
.	.	[2a	.
=235	=235	=235	=235
0r	1e	2a]	1b
.	.	2g#i	.
.	1f	[1a	2a
.	.	.	[2dd
=236	=236	=236	=236
1A	1e	1a]	2dd]
.	.	.	2cc#i
1B	1d	2r	1dd
.	.	2g	.
=237	=237	=237	=237
2A	1f	2a	1r
1d	.	2f	.
.	1e	2g	1ee
2c#i	.	2g	.
=238	=238	=238	=238
1d	0r	2f	2.ff
.	.	2a	.
.	.	.	4ee
1r	.	2.b-i	2dd
.	.	.	2cc
.	.	4a	.
=239	=239	=239	=239
1r	0r	4g	4b
.	.	4f	4a
.	.	4e	1dd
.	.	4d	.
1A	.	2e	.
.	.	[2a	2cc#i
=240	=240	=240	=240
1B	1d	2a]	1dd
.	.	2g#i	.
1A	1e	1a	2r
.	.	.	2cc
=241	=241	=241	=241
1D	2.d	1f	2b
.	.	.	2a
.	4c	.	.
1E	1B	1e	2a
.	.	.	2g#i
=242	=242	=242	=242
00Al	00Al	00el	00al
==	==	==	==
*-	*-	*-	*-
!!!system-decoration: [*]
!!!RDF**kern: i = editorial accidental
!!!RDF**kern: l = terminal long
!!!ENC: Benjamin Ory
!!!END: 2025/1/16
!!!EED: Benjamin Ory
!!!EEV: 2025/01/16
!!!YEC: Copyright 2025 Benjamin Ory, All Rights Reserved
!!!ONB: Translated from MusicXML on 2025/01/16